X: 1
T: Not Safe With A Razor
M: 4/4
L: 1/8
R: reel
K: Ador
|:A2 ed eAAE|EGGe dBAG|A~g3 gage|d~B3 GBdB|
A2 ed eAAE|EGGe dBAG|Adeg aege|1dBGA BedB:|2dBGA BA A2||
e~a3 abag|e~g3 agbg|egge g2 ge|dBGA BA A2|
a2 ea gedB|GA (3Bcd edBG|Adeg aege|1dBGA BA A2:|2dBGA BedB||
